;START_OF_HEADER
;HEADER_VERSION:0.1
;FLAVOR:Griffin
;GENERATOR.NAME:Cura_SteamEngine
;GENERATOR.VERSION:5.10.2
;GENERATOR.BUILD_DATE:2025-07-28
;TARGET_MACHINE.NAME:Ultimaker S5
;EXTRUDER_TRAIN.0.INITIAL_TEMPERATURE:205
;EXTRUDER_TRAIN.0.MATERIAL.VOLUME_USED:6019
;EXTRUDER_TRAIN.0.MATERIAL.GUID:44a029e6-e31b-4c9e-a12f-9282e29a92ff
;EXTRUDER_TRAIN.0.NOZZLE.DIAMETER:0.4
;EXTRUDER_TRAIN.0.NOZZLE.NAME:AA 0.4
;BUILD_PLATE.INITIAL_TEMPERATURE:60
;BUILD_VOLUME.TEMPERATURE:28
;PRINT.TIME:1752
;PRINT.GROUPS:1
;PRINT.SIZE.MIN.X:131.35
;PRINT.SIZE.MIN.Y:106.782
;PRINT.SIZE.MIN.Z:0.2
;PRINT.SIZE.MAX.X:330
;PRINT.SIZE.MAX.Y:237
;PRINT.SIZE.MAX.Z:24.6
;SLICE_UUID:3830f403-4c24-4e61-b884-371bd35c60f2
;END_OF_HEADER
;Generated with Cura_SteamEngine 5.10.2
T0

M82 ;absolute extrusion mode
G92 E0
M190 S60
M104 S205
M109 S205
G280 S1
G0 Z20.001
G1 F2700 E-6.5
;LAYER_COUNT:123
G0 F9000 X330 Y237
;LAYER:0
M106 S255
M204 S1500
M205 X30 Y30
G1 F600 Z2.2
G0 F9000 X193.178 Y118.348 Z2.2
;TYPE:SKIRT
G1 F600 Z0.2
G1 F2700 E0
G1 F1800 X191.295 Y120.46 E0.03548
G1 X189.447 Y121.289 E0.06088
G1 X139.694 Y134.661 E0.70695
G1 X137.532 Y134.744 E0.73408
G1 X134.896 Y133.661 E0.76982
G1 X132.989 Y131.924 E0.80216
G1 X131.846 Y129.753 E0.83293
G1 X131.35 Y127.379 E0.86335
G1 X131.64 Y125.189 E0.89105
G1 X132.42 Y123.223 E0.91757
G1 X134.303 Y121.111 E0.95306
G1 X136.151 Y120.282 E0.97846
G1 X186.348 Y106.782 E1.63031
G1 X188.757 Y107.037 E1.66069
G1 X190.853 Y108.044 E1.68985
G1 X192.609 Y109.649 E1.71968
G1 X193.752 Y111.818 E1.75043
G1 X194.248 Y114.192 E1.78084
G1 X193.958 Y116.382 E1.80855
G1 X193.178 Y118.348 E1.83507
G0 F9000 X192.833 Y118.134
G1 F1800 X191.053 Y120.13 E1.86861
G1 X189.283 Y120.924 E1.89294
G1 X139.636 Y134.263 E2.53761
G1 X137.603 Y134.341 E2.56312
G1 X135.113 Y133.318 E2.59688
G1 X133.31 Y131.675 E2.62747
G1 X132.227 Y129.618 E2.65662
G1 X131.756 Y127.364 E2.6855
G1 X132.031 Y125.288 E2.71176
G1 X132.765 Y123.437 E2.73673
G1 X134.545 Y121.441 E2.77027
G1 X136.315 Y120.647 E2.7946
G1 X186.379 Y107.188 E3.44471
G1 X188.646 Y107.428 E3.4733
G1 X190.628 Y108.38 E3.50087
G1 X192.288 Y109.897 E3.52907
G1 X193.371 Y111.953 E3.55821
G1 X193.842 Y114.207 E3.58709
G1 X193.567 Y116.283 E3.61335
G1 X192.833 Y118.134 E3.63832
G0 F9000 X192.487 Y117.921
G1 F1800 X190.811 Y119.8 E3.66989
G1 X189.119 Y120.559 E3.69315
G1 X139.578 Y133.865 E4.33643
G1 X137.674 Y133.938 E4.36032
G1 X135.33 Y132.975 E4.3921
G1 X133.631 Y131.426 E4.42094
G1 X132.608 Y129.483 E4.44847
G1 X132.162 Y127.349 E4.47581
G1 X132.421 Y125.389 E4.5006
G1 X133.111 Y123.65 E4.52407
G1 X134.787 Y121.771 E4.55564
G1 X136.479 Y121.012 E4.5789
G1 X186.41 Y107.594 E5.22726
G1 X188.535 Y107.819 E5.25406
G1 X190.403 Y108.716 E5.28005
G1 X191.967 Y110.145 E5.30662
G1 X192.99 Y112.088 E5.33415
G1 X193.436 Y114.222 E5.36149
G1 X193.177 Y116.182 E5.38628
G1 X192.487 Y117.921 E5.40975
G0 F9000 X192.141 Y117.709
G1 F1800 X190.571 Y119.469 E5.43932
G1 X188.955 Y120.194 E5.46153
G1 X139.52 Y133.467 E6.10342
G1 X137.745 Y133.535 E6.1257
G1 X135.549 Y132.633 E6.15547
G1 X133.951 Y131.176 E6.18259
G1 X132.989 Y129.348 E6.20849
G1 X132.568 Y127.334 E6.2343
G1 X132.812 Y125.489 E6.25763
G1 X133.457 Y123.862 E6.27958
G1 X135.027 Y122.102 E6.30916
G1 X136.643 Y121.377 E6.33137
G1 X186.441 Y108 E6.97799
G1 X188.424 Y108.21 E7.003
G1 X190.178 Y109.052 E7.0274
G1 X191.646 Y110.393 E7.05233
G1 X192.609 Y112.223 E7.07827
G1 X193.03 Y114.237 E7.10407
G1 X192.786 Y116.082 E7.12741
G1 X192.141 Y117.709 E7.14935
G0 F9000 X191.795 Y117.497
G1 F1800 X190.331 Y119.138 E7.17693
G1 X188.791 Y119.829 E7.1981
G1 X139.462 Y133.069 E7.8386
G1 X137.816 Y133.132 E7.85925
G1 X135.766 Y132.29 E7.88705
G1 X134.272 Y130.928 E7.9124
G1 X133.37 Y129.213 E7.9367
G1 X132.974 Y127.319 E7.96096
G1 X133.203 Y125.589 E7.98285
G1 X133.803 Y124.074 E8.00328
G1 X135.267 Y122.433 E8.03086
G1 X136.807 Y121.742 E8.05203
G1 X186.472 Y108.406 E8.69691
G1 X188.313 Y108.601 E8.72012
G1 X189.953 Y109.388 E8.74293
G1 X191.325 Y110.641 E8.76624
G1 X192.228 Y112.358 E8.79056
G1 X192.624 Y114.252 E8.81483
G1 X192.395 Y115.982 E8.83671
G1 X191.795 Y117.497 E8.85715
G0 F9000 X191.449 Y117.285
G1 F1800 X190.091 Y118.807 E8.88273
G1 X188.627 Y119.464 E8.90285
G1 X139.404 Y132.671 E9.54196
G1 X137.887 Y132.729 E9.56099
G1 X135.983 Y131.947 E9.58681
G1 X134.593 Y130.68 E9.61039
G1 X133.751 Y129.078 E9.63309
G1 X133.38 Y127.304 E9.65582
G1 X133.594 Y125.688 E9.67626
G1 X134.149 Y124.286 E9.69517
G1 X135.507 Y122.764 E9.72075
G1 X136.971 Y122.107 E9.74087
G1 X186.503 Y108.812 E10.38401
G1 X188.202 Y108.992 E10.40543
G1 X189.728 Y109.724 E10.42666
G1 X191.004 Y110.889 E10.44832
G1 X191.847 Y112.493 E10.47105
G1 X192.218 Y114.267 E10.49377
G1 X192.004 Y115.883 E10.51422
G1 X191.449 Y117.285 E10.53313
G0 F9000 X191.103 Y117.073
G1 F1800 X189.851 Y118.476 E10.55671
G1 X188.463 Y119.099 E10.57579
G1 X139.346 Y132.273 E11.2135
G1 X137.958 Y132.326 E11.23092
G1 X136.2 Y131.604 E11.25475
G1 X134.914 Y130.432 E11.27657
G1 X134.132 Y128.943 E11.29766
G1 X133.786 Y127.289 E11.31885
G1 X133.985 Y125.787 E11.33785
G1 X134.495 Y124.498 E11.35524
G1 X135.747 Y123.095 E11.37882
G1 X137.135 Y122.472 E11.3979
G1 X186.534 Y109.218 E12.03929
G1 X188.091 Y109.383 E12.05893
G1 X189.503 Y110.06 E12.07856
G1 X190.683 Y111.137 E12.0986
G1 X191.466 Y112.628 E12.11972
G1 X191.812 Y114.282 E12.14091
G1 X191.613 Y115.784 E12.15991
G1 X191.103 Y117.073 E12.17729
G0 F9000 X190.757 Y116.859
G1 F1800 X189.609 Y118.146 E12.19892
G1 X188.299 Y118.734 E12.21692
G1 X139.288 Y131.875 E12.85325
G1 X138.029 Y131.923 E12.86905
G1 X136.417 Y131.261 E12.8909
G1 X135.235 Y130.184 E12.91096
G1 X134.513 Y128.808 E12.93044
G1 X134.192 Y127.274 E12.9501
G1 X134.376 Y125.886 E12.96765
G1 X134.841 Y124.712 E12.98349
G1 X135.989 Y123.425 E13.00512
G1 X137.299 Y122.837 E13.02312
G1 X186.565 Y109.624 E13.66277
G1 X187.98 Y109.774 E13.68062
G1 X189.278 Y110.396 E13.69867
G1 X190.362 Y111.385 E13.71707
G1 X191.085 Y112.763 E13.73658
G1 X191.406 Y114.297 E13.75624
G1 X191.222 Y115.685 E13.77379
G1 X190.757 Y116.859 E13.78963
G0 F9000 X190.411 Y116.647
G1 F1800 X189.369 Y117.815 E13.80926
G1 X188.135 Y118.369 E13.82622
G1 X139.23 Y131.477 E14.46115
G1 X138.1 Y131.52 E14.47534
G1 X136.634 Y130.918 E14.49521
G1 X135.556 Y129.936 E14.5135
G1 X134.894 Y128.674 E14.53137
G1 X134.598 Y127.259 E14.5495
G1 X134.767 Y125.985 E14.56561
G1 X135.187 Y124.924 E14.57992
G1 X136.229 Y123.756 E14.59955
G1 X137.463 Y123.202 E14.61651
G1 X186.596 Y110.03 E15.25442
G1 X187.869 Y110.165 E15.27047
G1 X189.051 Y110.731 E15.2869
G1 X190.042 Y111.635 E15.30373
G1 X190.704 Y112.897 E15.3216
G1 X191 Y114.312 E15.33973
G1 X190.831 Y115.586 E15.35584
G1 X190.411 Y116.647 E15.37015
G0 F9000 X190.065 Y116.435
G1 F1800 X189.129 Y117.484 E15.38778
G1 X187.971 Y118.004 E15.4037
G1 X139.172 Y131.079 E16.03724
G1 X138.171 Y131.117 E16.04981
G1 X136.851 Y130.575 E16.0677
G1 X135.877 Y129.688 E16.08422
G1 X135.275 Y128.54 E16.10048
G1 X135.004 Y127.244 E16.11708
G1 X135.158 Y126.084 E16.13175
G1 X135.533 Y125.136 E16.14454
G1 X136.469 Y124.087 E16.16217
G1 X137.627 Y123.567 E16.17809
G1 X186.627 Y110.436 E16.81425
G1 X187.758 Y110.556 E16.82851
G1 X188.826 Y111.067 E16.84336
G1 X189.721 Y111.883 E16.85855
G1 X190.323 Y113.031 E16.8748
G1 X190.594 Y114.327 E16.89141
G1 X190.44 Y115.487 E16.90608
G1 X190.065 Y116.435 E16.91886
G0 F9000 X189.719 Y116.221
G1 F1800 X188.886 Y117.155 E16.93456
G1 X187.867 Y117.618 E16.94859
G1 X139.114 Y130.681 E17.58154
G1 X138.242 Y130.714 E17.59248
G1 X137.068 Y130.232 E17.6084
G1 X136.198 Y129.44 E17.62315
G1 X135.656 Y128.406 E17.63779
G1 X135.41 Y127.229 E17.65287
G1 X135.549 Y126.183 E17.6661
G1 X135.879 Y125.35 E17.67734
G1 X136.712 Y124.416 E17.69304
G1 X137.731 Y123.953 E17.70707
G1 X186.658 Y110.842 E18.34228
G1 X187.648 Y110.947 E18.35477
G1 X188.6 Y111.402 E18.368
G1 X189.4 Y112.131 E18.38157
G1 X189.942 Y113.165 E18.39621
G1 X190.188 Y114.342 E18.41129
G1 X190.049 Y115.388 E18.42452
G1 X189.719 Y116.221 E18.43576
G0 F9000 X189.373 Y116.009
G1 F1800 X188.645 Y116.825 E18.44947
G1 X187.763 Y117.232 E18.46165
G1 X139.056 Y130.283 E19.094
G1 X138.313 Y130.311 E19.10333
G1 X137.285 Y129.889 E19.11726
G1 X136.519 Y129.192 E19.13025
G1 X136.037 Y128.272 E19.14328
G1 X135.816 Y127.214 E19.15683
G1 X135.94 Y126.282 E19.16862
G1 X136.225 Y125.562 E19.17833
G1 X136.953 Y124.746 E19.19204
G1 X137.835 Y124.339 E19.20423
G1 X186.689 Y111.248 E19.83849
G1 X187.538 Y111.338 E19.84919
G1 X188.374 Y111.737 E19.86081
G1 X189.079 Y112.379 E19.87277
G1 X189.561 Y113.299 E19.88579
G1 X189.782 Y114.357 E19.89935
G1 X189.658 Y115.289 E19.91114
G1 X189.373 Y116.009 E19.92085
G0 F9000 X189.027 Y115.797
G1 F1800 X188.403 Y116.496 E19.9326
G1 X187.659 Y116.846 E19.94291
G1 X138.952 Y129.897 E20.57526
G1 X138.385 Y129.908 E20.58237
G1 X137.502 Y129.546 E20.59434
G1 X136.84 Y128.944 E20.60556
G1 X136.418 Y128.138 E20.61697
G1 X136.222 Y127.199 E20.629
G1 X136.337 Y126.335 E20.63993
G1 X136.571 Y125.774 E20.64755
G1 X137.195 Y125.075 E20.6593
G1 X137.939 Y124.725 E20.66961
G1 X186.72 Y111.654 E21.30292
G1 X187.429 Y111.729 E21.31186
G1 X188.148 Y112.072 E21.32185
G1 X188.758 Y112.627 E21.3322
G1 X189.18 Y113.433 E21.34361
G1 X189.376 Y114.372 E21.35564
G1 X189.261 Y115.236 E21.36657
G1 X189.027 Y115.797 E21.37419
G0 F9000 X188.729 Y115.53
G1 F1800 X188.158 Y116.169 E21.38493
G1 X187.555 Y116.46 E21.39333
G1 X138.848 Y129.511 E22.02568
G1 X138.46 Y129.507 E22.03055
G1 X137.719 Y129.203 E22.04059
G1 X137.16 Y128.695 E22.05006
G1 X136.799 Y128.005 E22.05983
G1 X136.627 Y127.181 E22.07039
G1 X136.733 Y126.388 E22.08042
G1 X136.869 Y126.041 E22.08509
G1 X137.44 Y125.402 E22.09584
G1 X138.043 Y125.111 E22.10423
G1 X186.824 Y112.04 E22.73755
G1 X187.266 Y112.094 E22.74313
G1 X187.879 Y112.368 E22.75155
G1 X188.438 Y112.876 E22.76102
G1 X188.799 Y113.566 E22.77079
G1 X188.971 Y114.39 E22.78135
G1 X188.865 Y115.183 E22.79138
G1 X188.729 Y115.53 E22.79605
G0 F9000 X188.385 Y115.315
G1 F1800 X187.913 Y115.843 E22.80493
G1 X187.451 Y116.074 E22.81141
G1 X138.744 Y129.125 E23.44376
G1 X138.486 Y129.108 E23.447
G1 X137.976 Y128.896 E23.45393
G1 X137.514 Y128.509 E23.46149
G1 X137.18 Y127.871 E23.47052
G1 X137.032 Y127.163 E23.47959
G1 X137.129 Y126.441 E23.48872
G1 X137.213 Y126.256 E23.49127
G1 X137.685 Y125.728 E23.50015
G1 X138.147 Y125.497 E23.50663
G1 X186.854 Y112.446 E24.13898
G1 X187.112 Y112.463 E24.14222
G1 X187.622 Y112.675 E24.14915
G1 X188.084 Y113.062 E24.15671
G1 X188.418 Y113.7 E24.16574
G1 X188.566 Y114.408 E24.17481
G1 X188.469 Y115.13 E24.18394
G1 X188.385 Y115.315 E24.18649
G0 F9000 X188.075 Y115.062
G1 F1800 X187.727 Y115.489 E24.1934
G1 X187.347 Y115.688 E24.19878
G1 X138.64 Y128.739 E24.83113
G1 X138.13 Y128.527 E24.83806
G1 X137.864 Y128.315 E24.84232
G1 X137.572 Y127.789 E24.84987
G1 X137.424 Y127.081 E24.85894
G1 X137.523 Y126.509 E24.86622
G1 X137.871 Y126.082 E24.87312
G1 X138.251 Y125.883 E24.8785
G1 X186.958 Y112.832 E25.51085
G1 X187.468 Y113.044 E25.51778
G1 X187.734 Y113.256 E25.52205
G1 X188.026 Y113.782 E25.52959
G1 X188.174 Y114.49 E25.53866
G1 X188.075 Y115.062 E25.54594
G0 F9000 X187.39 Y114.654
G1 F1800 X187.316 Y114.803 E25.54803
G1 X187.139 Y114.916 E25.55066
G1 X138.671 Y127.903 E26.17991
G1 X138.469 Y127.803 E26.18274
G1 X138.356 Y127.625 E26.18538
G1 X138.208 Y126.917 E26.19445
G1 X138.282 Y126.768 E26.19654
G1 X138.459 Y126.655 E26.19917
G1 X186.927 Y113.668 E26.82842
G1 X187.129 Y113.768 E26.83124
G1 X187.242 Y113.946 E26.83389
G1 X187.39 Y114.654 E26.84296
G0 F9000 X187.748 Y114.832
G1 F1800 X187.531 Y115.14 E26.84768
G1 X187.243 Y115.302 E26.85183
G1 X138.654 Y128.321 E27.48264
G1 X138.292 Y128.161 E27.48761
G1 X138.131 Y128.017 E27.49032
G1 X137.964 Y127.707 E27.49473
G1 X137.816 Y126.999 E27.5038
G1 X137.85 Y126.739 E27.50709
G1 X138.067 Y126.431 E27.51182
G1 X138.355 Y126.269 E27.51596
G1 X186.944 Y113.25 E28.14678
G1 X187.306 Y113.41 E28.15174
G1 X187.467 Y113.554 E28.15445
G1 X187.634 Y113.864 E28.15886
G1 X187.782 Y114.572 E28.16794
G1 X187.748 Y114.832 E28.17122
;MESH:Llavero.stl
G0 F9000 X186.706 Y114.378
M104 S199.5
;TYPE:WALL-OUTER
G1 F1236.8 X138.89 Y127.19 E29.12552
;MESH:NONMESH
G0 F600 X138.89 Y127.19 Z0.4
G0 F9000 X138.914 Y127.434
;TIME_ELAPSED:84.423385
;LAYER:1
;note -- min layer time used
;TYPE:WALL-OUTER
;MESH:Llavero.stl
G1 F818.6 X186.806 Y114.598 E29.87166
G1 F816.7 X186.682 Y114.134 E29.8789
M104 S202.9
G1 F818.6 X138.79 Y126.97 E30.62504
G1 X138.914 Y127.434 E30.63226
G0 F9000 X139.686 Y127.227
;MESH:NONMESH
G0 F600 X139.686 Y127.227 Z0.6
G0 F9000 X138.938 Y127.675
;TIME_ELAPSED:91.904378
;LAYER:2
;note -- min layer time used
M205 X50 Y50
;TYPE:WALL-OUTER
;MESH:Llavero.stl
G1 F1503.2 X186.907 Y114.822 E31.25503
G1 X186.658 Y113.893 E31.26709
G1 X138.689 Y126.746 E31.88986
G1 X138.938 Y127.675 E31.90192
M204 S3500
G0 F9000 X139.71 Y127.468
G0 X139.278 Y127.086
;TYPE:WALL-INNER
G1 F1026.6 X146.039 Y125.275 E32.03758
G1 F1026.6 X153.766 Y123.205 E32.19262
G1 F1026.6 X162.459 Y120.876 E32.36704
G1 X163.137 Y120.694 E32.38065
M104 S205
G1 X171.83 Y118.365 E32.55507
G1 F1026.6 X172.118 Y118.288 E32.56085
G1 X179.557 Y116.294 E32.71011
G1 F1026.6 X182.742 Y115.441 E32.77402
M205 X30 Y30
G1 X186.318 Y114.482 E32.84577
M204 S1500
G1 F2700 E26.34577
;MESH:NONMESH
G0 F600 X186.318 Y114.482 Z0.8
G0 F9000 X139.138 Y127.334
G0 X138.99 Y127.867
;TIME_ELAPSED:99.493463
;LAYER:3
;note -- min layer time used
M205 X50 Y50
;TYPE:WALL-OUTER
;MESH:Llavero.stl
G1 F2700 E32.84577
G1 F1800 X186.959 Y115.014 E33.46854
G1 X186.606 Y113.701 E33.48559
G1 X138.637 Y126.554 E34.10836
G1 X138.99 Y127.867 E34.12541
M204 S3500
G0 F9000 X139.762 Y127.66
G0 X139.3 Y127.328
;TYPE:WALL-INNER
G1 F1684.7 X146.061 Y125.517 E34.24127
G1 F1899.4 X153.788 Y123.447 E34.37369
G1 F2114.1 X162.481 Y121.118 E34.52266
G1 F2328.9 X172.14 Y118.53 E34.68819
G1 F2543.6 X182.765 Y115.683 E34.87027
G1 F2758.3 X186.42 Y114.703 E34.93291
G1 X186.295 Y114.24 E34.94085
G1 X182.177 Y115.344 E35.01143
G1 F2543.6 X178.823 Y116.242 E35.0689
G1 X171.552 Y118.19 E35.1935
G1 F2328.9 X166.266 Y119.606 E35.28409
G1 X161.893 Y120.778 E35.35903
G1 F2114.1 X153.2 Y123.107 E35.508
G1 F1899.4 X152.743 Y123.229 E35.51583
G1 X145.473 Y125.177 E35.64042
G1 F1684.7 X139.176 Y126.864 E35.74833
M205 X30 Y30
G1 F1680.8 X139.3 Y127.328 E35.7563
M204 S1500
;MESH:NONMESH
G0 F600 X139.3 Y127.328 Z1
G0 F9000 X139.042 Y128.063
;TIME_ELAPSED:105.953152
;LAYER:4
M205 X50 Y50
;TYPE:WALL-OUTER
;MESH:Llavero.stl
G1 F1800 X187.011 Y115.206 E36.37908
G1 X186.554 Y113.505 E36.40117
G1 X138.585 Y126.362 E37.02395
G1 X139.042 Y128.063 E37.04604
M204 S3500
G0 F9000 X139.814 Y127.856
G0 X139.324 Y127.573
;TYPE:WALL-INNER
G1 F2100 X146.085 Y125.761 E37.14259
G1 F2400 X153.812 Y123.691 E37.25294
G1 F2700 X162.505 Y121.361 E37.37709
G1 F3000 X172.164 Y118.773 E37.51503
G1 F3300 X182.788 Y115.925 E37.66676
G1 F3600 X186.521 Y114.924 E37.72007
G1 X186.272 Y113.995 E37.73334
G1 X179.344 Y115.851 E37.83227
G1 F3900 X166.788 Y119.216 E38.01159
G1 F4200 X153.266 Y122.84 E38.2047
G1 F4500 X139.075 Y126.644 E38.40737
G1 X139.154 Y126.941 E38.41161
G1 F4800 X139.324 Y127.573 E38.42064
G0 F9000 X139.535 Y127.204
;TYPE:SKIN
G1 F5354.3 X145.586 Y125.582 E38.49529
G1 F5019.6 X154.357 Y123.232 E38.60349
G1 X160.074 Y121.7 E38.67402
G1 F4685 X170.777 Y118.832 E38.80607
G1 X173.596 Y118.076 E38.84085
G1 F4350.3 X186.151 Y114.712 E38.99573
G1 F4337.3 X186.15 Y114.711 E38.99575
G1 F4003.6 X186.059 Y114.362 E39.00006
G1 F4015.7 X185.71 Y114.455 E39.00436
G1 X182.558 Y115.3 E39.04325
G1 F3681 X171.933 Y118.147 E39.17433
G1 F3346.4 X167.358 Y119.373 E39.23077
G1 X162.274 Y120.736 E39.2935
G1 F3011.8 X153.581 Y123.066 E39.40074
G1 F2677.1 X145.854 Y125.137 E39.49607
G1 F2342.5 X139.441 Y126.856 E39.57519
M205 X30 Y30
G1 F2349.6 X139.535 Y127.204 E39.57947
M204 S1500
G0 F9000 X139.758 Y126.826
;MESH:NONMESH
G0 F600 X139.758 Y126.826 Z1.2
G0 F9000 X139.241 Y127.72
G0 X139.094 Y128.255
;TIME_ELAPSED:112.978916
;LAYER:5
M205 X50 Y50
;TYPE:WALL-OUTER
;MESH:Llavero.stl
